icons/solid/arrow-path.svg

<svg width="24" height="24" viewBox="0 0 24 24" fill="none" xmlns="http://www.w3.org/2000/svg">
<path fill-rule="evenodd" clip-rule="evenodd" d="M4.75517 10.0589C5.82723 6.0579 9.93976 3.68353 13.9408 4.75559C15.2617 5.10955 16.4035 5.79374 17.3034 6.69528L19.2065 8.59835H16.0228C15.6085 8.59835 15.2728 8.93414 15.2728 9.34835C15.2728 9.76256 15.6085 10.0984 16.0228 10.0984H21.0154C21.2143 10.0984 21.4051 10.0193 21.5457 9.87864C21.6864 9.73797 21.7654 9.54717 21.7654 9.34824V4.35575C21.7654 3.94153 21.4296 3.60575 21.0154 3.60575C20.6011 3.60575 20.2654 3.94153 20.2654 4.35575V7.53591L18.3651 5.63561C17.2839 4.55253 15.9114 3.73071 14.329 3.3067C9.52779 2.02023 4.59276 4.86947 3.30628 9.67067C3.19908 10.0708 3.43651 10.482 3.83661 10.5892C4.23671 10.6964 4.64796 10.459 4.75517 10.0589ZM20.1626 13.4108C19.7625 13.3036 19.3513 13.5411 19.2441 13.9412C18.172 17.9422 14.0595 20.3165 10.0585 19.2445C8.73749 18.8905 7.5957 18.2063 6.69585 17.3048L4.79396 15.4017H7.97677C8.39099 15.4017 8.72677 15.0659 8.72677 14.6517C8.72677 14.2375 8.39099 13.9017 7.97677 13.9017L2.98413 13.9017C2.56992 13.9017 2.23413 14.2375 2.23413 14.6517V19.6443C2.23413 20.0585 2.56992 20.3943 2.98413 20.3943C3.39834 20.3943 3.73413 20.0585 3.73413 19.6443V16.4632L5.6342 18.3645C6.71539 19.4477 8.08772 20.2693 9.67024 20.6934C14.4714 21.9798 19.4065 19.1306 20.6929 14.3294C20.8001 13.9293 20.5627 13.5181 20.1626 13.4108Z" fill="#0F172A"/>
</svg>

<svg xmlns="http://www.w3.org/2000/svg" viewBox="0 0 24 24" fill="currentColor" aria-hidden="true" data-slot="icon">
  <path fill-rule="evenodd" d="M4.755 10.059a7.5 7.5 0 0 1 12.548-3.364l1.903 1.903h-3.183a.75.75 0 1 0 0 1.5h4.992a.75.75 0 0 0 .75-.75V4.356a.75.75 0 0 0-1.5 0v3.18l-1.9-1.9A9 9 0 0 0 3.306 9.67a.75.75 0 1 0 1.45.388Zm15.408 3.352a.75.75 0 0 0-.919.53 7.5 7.5 0 0 1-12.548 3.364l-1.902-1.903h3.183a.75.75 0 0 0 0-1.5H2.984a.75.75 0 0 0-.75.75v4.992a.75.75 0 0 0 1.5 0v-3.18l1.9 1.9a9 9 0 0 0 15.059-4.035.75.75 0 0 0-.53-.918Z" clip-rule="evenodd"/>
</svg>
